**kern	**text	**kern	**text	**kern	**text
*staff3	*staff3	*staff2	*staff2	*staff1	*staff1
*I"Basso	*	*I"Canto II	*	*I"Canto I	*
=1-	=1-	=1-	=1-	=1-	=1-
*clefF4	*	*clefG2	*	*clefG2	*
*k[b-]	*	*k[b-]	*	*k[b-]	*
*met(c|)	*	*met(c|)	*	*met(c|)	*
*M2/2	*	*M2/2	*	*M2/2	*
1F	An-	1cc	An-	1a	An-
=2	=2	=2	=2	=2	=2
2F\	-ge-	2cc\	-ge-	2a/	-ge-
2F\	-lus	2cc\	-lus	2a/	-lus
=3	=3	=3	=3	=3	=3
1F	Do-	1a	Do-	1cc	Do-
=4	=4	=4	=4	=4	=4
2F\	-mi-	2a/	-mi-	2cc\	-mi-
2F\	-ni	2a/	-ni	2cc\	-ni
=5	=5	=5	=5	=5	=5
1BB-	ad	1b-	ad	1dd	ad
=6	=6	=6	=6	=6	=6
2BB-/	pas-	2b-\	pas-	2dd\	pas-
2BB-/	-to-	2b-\	-to-	2dd\	-to-
=7	=7	=7	=7	=7	=7
[1C	-res	[1g	-res	[1cc	-res
=8	=8	=8	=8	=8	=8
1C]	.	1g]	.	1cc]	.
=9	=9	=9	=9	=9	=9
1C	nun-	1g	nun-	1cc	nun-
=10	=10	=10	=10	=10	=10
2C/	-ti-	2g/	-ti-	2cc\	-ti-
2C/	-o	2g/	-o	2cc\	-o
=11	=11	=11	=11	=11	=11
2F\	vo-	2a/	vo-	2cc\	vo-
2F\	-bis	2cc\	-bis	2cc\	-bis
=12	=12	=12	=12	=12	=12
2BB-/	gau-	2b-\	gau-	2dd\	gau-
2F\	-di-	2a/	-di-	2cc\	-di-
=13	=13	=13	=13	=13	=13
2G\	-um	1g	-um	1b-	-um
2E\	.	.	.	.	.
=14	=14	=14	=14	=14	=14
1F	ma-	1f	ma-	1a	ma-
=15	=15	=15	=15	=15	=15
[1C	-gnum	[1e	-gnum	[1g	-gnum
=16	=16	=16	=16	=16	=16
1C]	.	1e]	.	1g]	.
=17	=17	=17	=17	=17	=17
2r	.	2r	.	2r	.
2D\	qui-	2f/	qui-	2a/	qui-
=18	=18	=18	=18	=18	=18
1BB-	-a	1d	-a	1b-	-a
=19	=19	=19	=19	=19	=19
2F\	na-	2f/	na-	2a/	na-
2F\	-tus	2f/	-tus	2a/	-tus
=20	=20	=20	=20	=20	=20
1C	est	1e	est	1g	est
=21	=21	=21	=21	=21	=21
2r	.	2r	.	2r	.
2C/	de	2e/	de	2g/	de
=22	=22	=22	=22	=22	=22
2BB-/	Ma-	2d/	Ma-	2b-\	Ma-
2C/	-ri-	2e/	-ri-	2g/	-ri-
=23	=23	=23	=23	=23	=23
2D\	-a	2f/	-a	2a/	-a
2E\	Vir-	2g/	Vir-	2b-\	Vir-
=24	=24	=24	=24	=24	=24
1F	-gi-	1a	-gi-	1cc	-gi-
=25	=25	=25	=25	=25	=25
2E\	-ne	2g/	-ne	2b-\	-ne
2F\	in	2f/	in	2a/	in
=26	=26	=26	=26	=26	=26
1BB-	Be-	1b-	Be-	1dd	Be-
=27	=27	=27	=27	=27	=27
1F	.	1a	.	1cc	.
=28	=28	=28	=28	=28	=28
2E\	-thle-	2g/	-thle-	2b-\	-thle-
2D\	.	2f/	.	2a/	.
=29	=29	=29	=29	=29	=29
2C/	-em	2e/	-em	2g/	-em
4D\	.	[2f/	.	2f/	.
4BB-/	.	.	.	.	.
=30	=30	=30	=30	=30	=30
1C	Iu-	2f/]	.	1g	Iu-
.	.	2e/	Iu-	.	.
=31	=31	=31	=31	=31	=31
[1FF	-dae	[1f	-dae	[1f	-dae
=32	=32	=32	=32	=32	=32
1FF]	.	1f]	.	1f]	.
=33	=33	=33	=33	=33	=33
1F	Ve-	1f	Ve-	1a	Ve-
=34	=34	=34	=34	=34	=34
2C/	-ni-	2g/	-ni-	2cc\	-ni-
4C/	-te	4g/	-te	4cc\	-te
4C/	o-	4a/	o-	4cc\	o-
=35	=35	=35	=35	=35	=35
4E\	-mnes	4g/	-mnes	4b-\	-mnes
4F#\	a-	4f#/	a-	4a/	a-
4G\	-do-	4e/	-do-	4g/	-do-
4G\	-re-	4g/	-re-	4b-\	-re-
=36	=36	=36	=36	=36	=36
1D	-mus	1f#	-mus	1a	-mus
=37	=37	=37	=37	=37	=37
2r	.	2r	.	2r	.
2F\	re-	2f/	re-	2a/	re-
=38	=38	=38	=38	=38	=38
2C/	-gem	2e/	-gem	2g/	-gem
2G\	na-	2d/	na-	2b-\	na-
=39	=39	=39	=39	=39	=39
1F	-tum	1f	-tum	1a	-tum
=40	=40	=40	=40	=40	=40
[1C	Ma-	2r	.	1cc	Ma-
.	.	2a/	Ma-	.	.
=41	=41	=41	=41	=41	=41
1C]	.	2g/	-ri-	2b-\	-ri-
.	.	2f/	.	2a/	.
=42	=42	=42	=42	=42	=42
2C/	-ri-	2e/	-ae	2g/	-ae
4D\	-ae	[2f/	Fi-	2f/	Fi-
4BB-/	.	.	.	.	.
=43	=43	=43	=43	=43	=43
2C/	Fi-	2f/]	.	1g	-li-
2C/	-li-	2e/	-li-	.	.
=44	=44	=44	=44	=44	=44
[1FF	-um	[1f	-um	[1f	-um
=45	=45	=45	=45	=45	=45
1FF]	.	1f]	.	1f]	.
=46	=46	=46	=46	=46	=46
1F	Hu-	1a	Hu-	1cc	Hu-
=47	=47	=47	=47	=47	=47
1F	-ic	1a	-ic	1cc	-ic
=48	=48	=48	=48	=48	=48
4F\	ca-	4a/	ca-	4cc\	ca-
4F\	-na-	4a/	-na-	4cc\	-na-
4F\	-mus	4a/	-mus	4cc\	-mus
4F\	cum	4a/	cum	4cc\	cum
=49	=49	=49	=49	=49	=49
2F\	An-	2a/	An-	2cc\	An-
2BB-/	-ge-	2b-\	-ge-	2dd\	-ge-
=50	=50	=50	=50	=50	=50
1F	-lis	1a	-lis	1cc	-lis
=51	=51	=51	=51	=51	=51
2F\	Sem-	2.a/	Sem-	1cc	Sem-
4E\	.	.	.	.	.
4D\	.	4g/	.	.	.
=52	=52	=52	=52	=52	=52
2C/	-per	1g	-per	1cc	-per
2C/	.	.	.	.	.
=53	=53	=53	=53	=53	=53
2C/	lau-	2g/	lau-	2cc\	lau-
4F\	-dan-	4a/	-dan-	4cc\	-dan-
4F\	-tes	4a/	-tes	4cc\	-tes
=54	=54	=54	=54	=54	=54
4C/	Iu-	4g/	Iu-	4cc\	Iu-
4C/	-bi-	4g/	-bi-	4cc\	-bi-
4F\	-lan-	4a/	-lan-	4cc\	-lan-
4F\	-tes	4a/	-tes	4cc\	-tes
=55	=55	=55	=55	=55	=55
4C/	si-	4g/	si-	4cc\	si-
4C/	-ne	4g/	-ne	4cc\	-ne
4F\	fi-	4a/	fi-	4cc\	fi-
4F\	-ne	4a/	-ne	4cc\	-ne
=56	=56	=56	=56	=56	=56
4BB-/	col-	4b-\	col-	4dd\	col-
4BB-/	-lau-	4b-\	-lau-	4dd\	-lau-
2F\	-dan-	[2a/	-dan-	[2cc\	-dan-
=57	=57	=57	=57	=57	=57
2C/	-tes	4a/]	.	4cc\]	.
.	.	4g/	-tes	4b-\	-tes
4D\	Do-	[2f/	Do-	2a/	Do-
4BB-/	.	.	.	.	.
=58	=58	=58	=58	=58	=58
1C	-mi-	2f/]	.	1g	-mi-
.	.	2e/	-mi-	.	.
=59	=59	=59	=59	=59	=59
1FF;	-num.	1f;	-num.	1f;	-num.
==	==	==	==	==	==
*-	*-	*-	*-	*-	*-
